X: 1974
T: Yazıktır Etme
C: Erol Sayan
O: Turkey
F: http://compmusic.upf.edu/node/140
N: hicazkar--sarki--duyek--yaziktir_etme--erol_sayan
N: makam= hicazkar
N: form= sarki
N: usul= duyek = 8/4
M: 8/4
L: 1/16
K: C _1/4B _7/8e _7/8A ^f
Q: 1/4=216
%%MIDI tuningsystem comma53
gf ef eg fe de de df ed  | cB cd ed cB c3B AB c2  | 
w:   |   | 
de dc Bc Bc dc Bc _7/8d3c  | cB A4 B2 G2 AB cd ef  | 
w:   |   | 
gf ef eg fe de de df ed  | cB cd ed cB c3B AB c2  | 
w:   |   | 
de dc Bc Bc dc Bc _7/8d3c  | cB A4 B2 G8  | \
w:   |   | 
f2 g4 f2 e2 f2 g8 ed ef g4 z4  | 
w:   | 
f2 g2 a2 g2 f4 e6 f2 d8 d2 e6 e3d c4 d2 e2  | \
w:   | 
d2 c2 B8 B4  | B2 c2 _7/8d8 B4  | 
w:   |   | 
A2 B2 G8 d2 e6 e3d c4 d2 e2  | d2 c2 B8 B4  | \
w:   |   | 
B2 c2 _7/8d8 B4  | A2 B2 G8 g4  | 
w:   |   | 
f4 e4 d4 d2 c4 B2 c8 =a2 _7/8b4 a2 g4 a4 a2 g2  | \
w:   | 
f2 =a2 g8 g2 f4 e2 d2 c2 e4 d2 f4 e2 d2 c2 B2 A2 G4  | 
w:   | 
B2 c2 _7/8d6 c2 B2 A4 B2 G8 g2 f4 e2 =d2 c2 e4 d2 f4 e2 d2 c2 B2 A2 G4  | 
w:   | 
B2 c2 _7/8d6 c2 B2 A4 B2 G8 gf ef  | \
w:   | 
eg fe de de df ed cB cd  | 
w:   | 
ed cB c3B AB c2 de dc  | Bc Bc dc Bc _7/8d3c cB A4 B2 G2 AB c=d ef gf ef  | 
w:   |   | 
eg fe de de df ed cB cd  | ed cB c3B AB c2 de dc  | 
w:   |   | 
Bc Bc dc Bc _7/8d3c cB A4 B2 G8 f2 g4 f2 e2 f2 g8  | 
w:   | 
ed ef g4 z4 f2 g2  | a2 g2 f4 e6 f2  | \
w:   |   | 
d8 d2 e6  | e3d c4 d2 e2 d2 c2  | 
w:   |   | 
B8 B4 B2 c2  | _7/8d8 B4 A2 B2  | G8 d2 e6  | \
w:   |   |   | 
e3d c4 d2 e2 d2 c2  | B8 B4 B2 c2  | 
w:   |   | 
_7/8d8 B4 A2 B2  | G8 g4 f4  | e4 d4 d2 c4 B2  | \
w:   |   |   | 
c8 =a2 _7/8b4 a2  | g4 =a4 a2 g2 f2 a2  | 
w:   |   | 
g8 g2 f4 e2  | d2 c2 e4 d2 f4 e2  | d2 c2 B2 A2 G4 B2 c2  | \
w:   |   |   | 
_7/8d6 c2 B2 A4 B2  | 
w:   | 
G8 g2 f4 e2  | d2 c2 e4 d2 f4 e2  | d2 c2 B2 A2 G4 B2 c2  | \
w:   |   |   | 
_7/8d6 c2 B2 A4 B2  | 
w:   | 
G8 z2 f4 g2  | f4 g4 e2 f4 e2  | f8 z2 d4 e2  | \
w:   |   |   | 
f4 =a4 g2 f4 a2  | g8 g4 f2 e2  | 
w:   |   | 
f4 e2 d2 c2 d4 e2  | d2 c2 B2 A2 G2 B4 c2  | \
w:   |   | 
_7/8d4 c4 B2 A4 B2  | G8 g4 f2 e2  | 
w:   |   | 
f4 e2 d2 c2 d4 e2  | d2 c2 B2 A2 G2 B4 c2  | \
w:   |   | 
_7/8d4 c4 B2 A4 B2  | G8 g4 f4  | 
w:   |   | 
e4 d4 d2 c4 B2  | c8 =a2 _7/8b4 a2  | \
w:   |   | 
g4 =a4 a2 g2 f2 a2  | g8 g2 f4 e2  | \
w:   |   | 
d2 c2 e4 d2 f4 e2  | 
w:   | 
d2 c2 B2 A2 G4 B2 c2  | _7/8d6 c2 B2 A4 B2  | \
w:   |   | 
G8 g2 f4 e2  | d2 c2 e4 d2 f4 e2  | 
w:   |   | 
d2 c2 B2 A2 G4 B2 c2  | _7/8d6 c2 B2 A4 B2  | \
w:   |   | 
G8 z2 g4 f2  | e2 d2 c2 B2 d4 G4  | 
w:   |   | 
B4 d4 z2 f4 e2  | d8 c4 B4  | A2 G6 G4 B2 B4 d4 d2 f2 e2 d2 e8 e4 d2 e2 c4 d4 d2 c4 d2 B8 G4 B2 B4  | 
w:   |   |   | 
d4 d2 f2 e2 d2 e8 e4 d2 e2 f4  | g4 g2 =a4 f2 g8 g4 f4 e4  | \
w:   |   | 
d4 d2 c4 B2 c8 =a2 _7/8b4 a2 g4  | 
w:   | 
=a4 a2 g2 f2 a2 g8 g2 f4 e2 d2 c2  | \
w:   | 
e4 d2 f4 e2 d2 c2  | B2 A2 G4 B2 c2 _7/8d6 c2 B2 A4 B2 G8 g2 f4 e2 =d2 c2  | 
w:   |   | 
e4 d2 f4 e2 d2 c2  | B2 A2 G4 B2 c2 _7/8d6 c2 B2 A4 B2 G8 |
w:   |   | 


